X: 26919
T: Miss Abbott
R: waltz
M: 3/4
K: Eminor
Be ^de fg|e2E2c2|Be ^de fg|e2B2d2|
dc Bc FA|GE B4|B,^D GF B,D|E6:|
BE cE BE|FG EB, GA|BE dc Ac|B2 B,2 E2|
FB, A4|GE e4|cA FA ce|^d4 B2|
BE BE|FG E2 GA|Be ^de fe|B6|
AF c4|BE g4|cB FA GF|E6|

